X:08
T:Colonel Baird. 2voices. Dix.08
M:6/8
L:1/8
Q:3/8=100
S:Anon. MS dated 1811, from Dixon collection, Holton le Moor, Lincs.
C:Mrs Oswald
R:jig
N:Repeat marks added at start
N: ‘The dull jig Colonel Baird was first published in Niel Gow’s Fourth Collection.
N:It was written by Mrs Oswald of Auchincruive, born Mary Ramsay, the heiress of a
N:slave trader from Jamaica who married Richard Oswald, a slaver from the
N:West of Scotland’ (J.Campin)
O:England;Lincolnshire;Holton le Moor
Z:vmp.R.Greig 2010 <http://www.village-music-project.org.uk>
K:F
[V:1]|:c|(cf).c (cf).d|c2=cc2d|(cA).F (BG).E|F2FF2c|
[V:2]|:z|(F,A,).C F,B,.D|G,A,C G,A,C|G,A,C C,G,C|F,A,CF,3|
[V:1](cf).c (cf).d|c2=cc2d|(cA).F (BG).E|F3F2:|
[V:2](F,A,).C F,B,.D|G,A,C G,A,C|G,A,C C,G,C|F,C,A,,F,,2:|
[V:1]|:B|{AB}c2c AFA|{c}B2B GEG|(FG).A (FG).A|{c}B2AG2B|
[V:2]|:z|F,A,C F,A,C|E,G,C C,G,C|G,A,C G,A,C|C,G,C C,G,C|
[V:1]{AB}c2c AFA|”tr”B2B GEG|F>GA BGE|F3F2:|
[V:2]F,A,C F,A,C|E,G,C C,G,C|F,A,C C,G,C|F,C,A,,F,,2:|

